X:1
T:Title
%%score { 1 | ( 2 3 ) }
L:1/8
Q:1/4=100
M:4/4
K:Eb
V:1 treble nm="Grand Piano"
V:2 bass 
V:3 bass 
V:1
 B3 B cBGE | e4 c2 z2 | [GB]3 G cBGE | [DF]6 z2 | B3 B cBGE | e4 c2 z2 | %6
w: Charles~Edward~Pollock * * * * *||||||
 [GB]3 [Ac] [GB][EG][DF][DG] | E6 z2 | c3 d e>d e>c | [GB]4 [EG]2 z2 | %10
w: ||||
 [DF]3 [EG] [FA][Ac] [GB]>[FA] | G4 B2 z2 | c3 d e>d e>c | [GB]4 [EG]2 z2 | %14
w: ||||
 [DF]3 [EG] [FA]>[EG] [FA]>[DF] | E6 z2 |] %16
w: ||
V:2
 [E,G,E]3 [E,G,E] [E,A,E][E,G,E][E,B,E][G,B,] | [A,CA]4 [A,EA]2 z2 | %2
 [E,E]3 [E,B,E] [E,A,E][E,G,E][E,B,E][E,G,] | [B,,B,]6 z2 | %4
 [E,G,E]3 [E,G,E] [E,A,E][E,G,E][E,B,E][G,B,] | [A,CA]4 [A,EA]2 z2 | %6
 [E,E]3 [E,E] [E,E][E,B,][B,,A,][B,,B,] | [E,G,]6 z2 | %8
 [A,EA]3 [A,DA] [A,CA]>[A,=B,A] [A,CA]>[A,EA] | [E,E]4 [E,B,]2 z2 | %10
 [B,,B,]3 [B,,B,] [B,,B,][B,,B,] [B,,B,]>[B,,B,] | B,4 z4 | %12
 [A,E]3 [A,B,E] [A,CA]>[A,=B,A] [A,CA]>[A,EA] | [E,E]4 [E,B,]2 z2 | %14
 [B,,B,]3 [B,,B,] [B,,B,]>[B,,B,] [B,,B,]>[B,,A,] | [E,G,]6 z2 |] %16
V:3
 x8 | x8 | x8 | x8 | x8 | x8 | x8 | x8 | x8 | x8 | x8 | [E,E]4- [E,G,E]2 z2 | x8 | x8 | x8 | x8 |] %16

